X: 1
T: V\"avmazurka fr\aan Bygdsiljum
C: av Thomas Andersson, V\"asterbotten
S: Bruce Sagan's "scanfolk" session archive
F: https://nordicfiddlesandfeet.org/Allspel/V%C3%A4vmazurka.pdf 2021-7-12
R: mazurka, waltz, pols(ka)
%S: s:2 b:19(10+9)
Z: 2021 John Chambers <jc:trillian.mit.edu>
M: 3/4
L: 1/8
K: D
"^A"|:\
a2 g2 f2 | d2 "^+   Fine"e4 || a2 g2 f2 | d2 "^+"e2 "^+"e2 |\
"D"a2 g2 f2 | "D"d2 "A7"(cd) (ef) | g2 (ec) (Ac) |[1 "D"d2 d4 :|[2 "D"d2 d3 d \
"^B"|: "G"d2 (BG) (Bd) |
"G"(de/)d/ (BG) (Bd) | "D"A2 (Ad) (AF) | "D"D4 d2 |\
"A7"c2 (cd) (ef) | g2 e2 c2 |[1,3 "D"d2 (de) (fg) | a2 f2 d2 :|\
[2,4 "D"d3 (edc) | "_D.C. al Fine"d4-d2y |]
%%text SEL02149 Version utformadoch utskriven Stefan Lind\'en 160520
